logos/duffle.svg

<?xml version="1.0" encoding="UTF-8"?>
<svg width="151px" height="40px" viewBox="0 0 151 40" version="1.1" xmlns="http://www.w3.org/2000/svg" xmlns:xlink="http://www.w3.org/1999/xlink">
    <!-- Generator: Sketch 51.3 (57544) - http://www.bohemiancoding.com/sketch -->
    <title>Logo Word</title>
    <desc>Created with Sketch.</desc>
    <defs></defs>
    <g id="Page-1" stroke="none" stroke-width="1" fill="none" fill-rule="evenodd">
        <g id="Website" transform="translate(-80.000000, -361.000000)">
            <g id="Intro" transform="translate(-88.000000, -175.000000)">
                <g id="Logo-Word" transform="translate(168.000000, 536.000000)">
                    <path d="M0,27.8202247 C0,21.0786517 4.68678085,15.5955056 11.3821821,15.5955056 C14.4620666,15.5955056 17.0063191,16.6292135 18.8810314,18.4719101 L18.8810314,0.674157303 L26.7816049,0.674157303 L26.7816049,39.3258427 L18.9703035,39.3258427 L18.9703035,36.7191011 L18.8810314,36.7191011 C17.1848631,38.6067416 14.5067026,40 11.3821821,40 C4.68678085,40 0,34.5617978 0,27.8202247 Z M8.39156953,27.8202247 C8.39156953,30.9662921 10.5340979,33.2134831 13.7478905,33.2134831 C16.8277751,33.2134831 19.0595755,30.9662921 19.0595755,27.8202247 C19.0595755,24.6292135 16.693867,22.3820225 13.7478905,22.3820225 C10.757278,22.3820225 8.39156953,24.6292135 8.39156953,27.8202247 Z M40.2120838,16.2696629 L40.2120838,27.2359551 C40.2120838,31.7752809 41.417256,33.5280899 44.7203206,33.5280899 C48.0233852,33.5280899 49.2285574,31.7752809 49.2285574,27.2359551 L49.2285574,16.2696629 L57.1291309,16.2696629 L57.1291309,29.1685393 C57.1291309,36.8988764 53.2904342,40 44.7203206,40 C36.150207,40 32.3115103,36.8988764 32.3115103,29.1685393 L32.3115103,16.2696629 L40.2120838,16.2696629 Z M64.6180611,16.2696629 L64.6180611,11.3707865 C64.6626971,4.62921348 67.8764897,0 73.5898988,0 C77.6071395,0 80.1067559,2.06741573 80.1067559,2.06741573 L77.3393234,7.68539326 C77.3393234,7.68539326 76.2680592,7.05617978 74.973615,7.05617978 C72.9649946,7.05617978 72.5186346,8.40449438 72.5186346,11.5955056 L72.5186346,16.2696629 L77.7856835,16.2696629 L77.7856835,22.3370787 L72.5186346,22.3370787 L72.5186346,39.3258427 L64.6180611,39.3258427 L64.6180611,22.3370787 L61.3149965,22.3370787 L61.3149965,16.2696629 L64.6180611,16.2696629 Z M83.8784986,16.2696629 L83.8784986,11.3707865 C83.9231346,4.62921348 87.1369272,0 92.8503363,0 C96.867577,0 99.3671935,2.06741573 99.3671935,2.06741573 L96.599761,7.68539326 C96.599761,7.68539326 95.5284968,7.05617978 94.2340525,7.05617978 C92.2254322,7.05617978 91.7790721,8.40449438 91.7790721,11.5955056 L91.7790721,16.2696629 L97.046121,16.2696629 L97.046121,22.3370787 L91.7790721,22.3370787 L91.7790721,39.3258427 L83.8784986,39.3258427 L83.8784986,22.3370787 L80.575434,22.3370787 L80.575434,16.2696629 L83.8784986,16.2696629 Z M102.067672,39.3258427 L102.067672,0.674157303 L109.968245,0.674157303 L109.968245,39.3258427 L102.067672,39.3258427 Z M139.110599,28.8988764 L122.506004,28.8988764 C122.506004,32.4494382 125.451981,33.6629213 127.460601,33.6629213 C130.004853,33.6629213 131.120754,33.1685393 133.040102,31.1011236 L138.753511,33.9775281 C136.164623,38.3370787 131.968838,40 126.880333,40 C119.961752,40 114.292979,34.5168539 114.292979,27.8202247 C114.292979,21.0786517 119.961752,15.5955056 126.880333,15.5955056 C133.84355,15.5955056 139.155235,19.7303371 139.155235,27.8202247 C139.155235,28.1348315 139.155235,28.6292135 139.110599,28.8988764 Z M122.729184,24.494382 L131.433206,24.494382 C131.076118,22.0674157 129.424585,20.7640449 127.103513,20.7640449 C124.380716,20.7640449 122.863092,22.3820225 122.729184,24.494382 Z" id="duffle" fill="#3731AA"></path>
                    <ellipse id="Oval" fill="#E83683" fill-rule="nonzero" cx="146.323838" cy="34.8305085" rx="4.30116181" ry="4.3220339"></ellipse>
                </g>
            </g>
        </g>
    </g>
</svg>

<svg width="151" height="40" xmlns="http://www.w3.org/2000/svg"><g fill="none" fill-rule="evenodd"><path d="M0 27.82c0-6.741 4.687-12.224 11.382-12.224 3.08 0 5.624 1.033 7.499 2.876V.674h7.9v38.652h-7.81v-2.607h-.09C17.185 38.607 14.507 40 11.382 40 4.687 40 0 34.562 0 27.82zm8.392 0c0 3.146 2.142 5.393 5.356 5.393 3.08 0 5.312-2.247 5.312-5.393 0-3.19-2.366-5.438-5.312-5.438-2.99 0-5.356 2.247-5.356 5.438zm31.82-11.55v10.966c0 4.54 1.205 6.292 4.508 6.292s4.509-1.753 4.509-6.292V16.27h7.9v12.899C57.13 36.899 53.29 40 44.72 40s-12.408-3.101-12.408-10.831v-12.9h7.9zm24.406 0v-4.9C64.663 4.63 67.876 0 73.59 0c4.017 0 6.517 2.067 6.517 2.067l-2.768 5.618s-1.07-.629-2.365-.629c-2.009 0-2.455 1.348-2.455 4.54v4.674h5.267v6.067h-5.267v16.989h-7.9V22.337h-3.304V16.27h3.303zm19.26 0v-4.9C83.923 4.63 87.137 0 92.85 0c4.018 0 6.517 2.067 6.517 2.067L96.6 7.685s-1.072-.629-2.366-.629c-2.009 0-2.455 1.348-2.455 4.54v4.674h5.267v6.067H91.78v16.989h-7.9V22.337h-3.304V16.27h3.303zm18.19 23.056V.674h7.9v38.652h-7.9zm37.043-10.427h-16.605c0 3.55 2.946 4.764 4.955 4.764 2.544 0 3.66-.494 5.58-2.562l5.713 2.877c-2.59 4.36-6.785 6.022-11.874 6.022-6.918 0-12.587-5.483-12.587-12.18 0-6.741 5.669-12.224 12.587-12.224 6.964 0 12.275 4.134 12.275 12.224 0 .315 0 .81-.044 1.079zm-16.382-4.405h8.704c-.357-2.427-2.008-3.73-4.33-3.73-2.722 0-4.24 1.618-4.374 3.73z" fill="#3731AA"/><ellipse fill="#E83683" fill-rule="nonzero" cx="146.324" cy="34.831" rx="4.301" ry="4.322"/></g></svg>
